resources/svg/insert-row-top.svg

<svg fill="currentColor" viewBox="0 0 24 24" xmlns="http://www.w3.org/2000/svg"><path d="M20 13C20.5523 13 21 13.4477 21 14V20C21 20.5523 20.5523 21 20 21H4C3.44772 21 3 20.5523 3 20V14C3 13.4477 3.44772 13 4 13H20ZM19 15H5V19H19V15ZM12 1C14.7614 1 17 3.23858 17 6C17 8.76142 14.7614 11 12 11C9.23858 11 7 8.76142 7 6C7 3.23858 9.23858 1 12 1ZM13 3H11V4.999L9 5V7L11 6.999V9H13V6.999L15 7V5L13 4.999V3Z"/></svg>

<svg xmlns="http://www.w3.org/2000/svg" viewBox="0 0 24 24" fill="currentColor">
    <g>
        <path fill="none" d="M0 0H24V24H0z"/>
        <path d="M20 13c.552 0 1 .448 1 1v6c0 .552-.448 1-1 1H4c-.552 0-1-.448-1-1v-6c0-.552.448-1 1-1h16zm-1 2H5v4h14v-4zM12 1c2.761 0 5 2.239 5 5s-2.239 5-5 5-5-2.239-5-5 2.239-5 5-5zm1 2h-2v1.999L9 5v2l2-.001V9h2V6.999L15 7V5l-2-.001V3z"/>
    </g>
</svg>
